dist/media/images/wave.svg

<svg width="19" height="30" viewBox="0 0 19 30" fill="none" xmlns="http://www.w3.org/2000/svg">
<g filter="url(#filter0_d_1_1012)">
<path d="M13.7139 27C15.1729 27 16.3066 25.7672 16.9286 24.4474C17.2717 23.7194 17.6418 23.048 17.6418 21.5997C17.6418 18.8997 16.3557 18.8998 16.3557 16.1998C16.3557 13.4998 17.6418 13.4998 17.6418 10.7999C17.6418 8.0999 16.3557 8.0999 16.3557 5.39994C16.3557 3.95185 16.7256 3.28042 17.0687 2.55256C17.6908 1.23279 16.459 0 15 0H3.9279C2.46887 0 1.33508 1.23279 0.713023 2.55256C0.369953 3.28042 0 3.95185 0 5.39994C0 8.0999 1.28611 8.0999 1.28611 10.7999C1.28611 13.4998 0 13.4998 0 16.1998C0 18.8998 1.28611 18.8997 1.28611 21.5997C1.28611 23.048 0.916063 23.7194 0.572959 24.4474C-0.0490396 25.7672 1.18277 27 2.64179 27H13.7139Z" fill="white"/>
<path d="M16.6451 24.3138C16.0393 25.5992 14.986 26.6866 13.7139 26.6866H2.64179C1.99632 26.6866 1.41213 26.4128 1.06323 26.0126C0.722771 25.6222 0.60452 25.1157 0.856482 24.581C0.879521 24.5321 0.902786 24.4833 0.926145 24.4343C1.2536 23.7468 1.59954 23.0205 1.59954 21.5997C1.59954 20.1821 1.25599 19.4577 0.926022 18.765L0.923722 18.7601C0.61147 18.1046 0.313433 17.479 0.313433 16.1998C0.313433 14.9206 0.61147 14.295 0.923722 13.6394L0.926022 13.6346C1.25599 12.9419 1.59954 12.2175 1.59954 10.7999C1.59954 9.3822 1.25599 8.65782 0.926022 7.96511L0.923722 7.96028C0.61147 7.30477 0.313433 6.6791 0.313433 5.39994C0.313433 4.12077 0.610572 3.49699 0.926019 2.83476C0.949464 2.78555 0.973009 2.73612 0.996541 2.68619C1.60241 1.40077 2.65581 0.313433 3.9279 0.313433H15C15.6455 0.313433 16.2296 0.587222 16.5785 0.987348C16.9189 1.3778 17.0372 1.8843 16.7852 2.41893C16.7622 2.46769 16.739 2.51642 16.7157 2.56535C16.3882 3.25282 16.0423 3.97912 16.0423 5.39994C16.0423 6.8176 16.3858 7.54198 16.7158 8.23469L16.7181 8.23952C17.0303 8.89503 17.3284 9.5207 17.3284 10.7999C17.3284 12.079 17.0303 12.7047 16.7181 13.3602L16.7158 13.365C16.3858 14.0577 16.0423 14.7821 16.0423 16.1998C16.0423 17.6175 16.3858 18.3418 16.7158 19.0345L16.7181 19.0394C17.0303 19.6949 17.3284 20.3206 17.3284 21.5997C17.3284 22.8788 17.0312 23.5026 16.7158 24.1649C16.6923 24.2142 16.6687 24.2637 16.6451 24.3138Z" stroke="#26103D" stroke-width="0.626866"/>
</g>
<defs>
<filter id="filter0_d_1_1012" x="0" y="0" width="18.6267" height="29.0149" filterUnits="userSpaceOnUse" color-interpolation-filters="sRGB">
<feFlood flood-opacity="0" result="BackgroundImageFix"/>
<feColorMatrix in="SourceAlpha" type="matrix" values="0 0 0 0 0 0 0 0 0 0 0 0 0 0 0 0 0 0 127 0" result="hardAlpha"/>
<feOffset dx="0.985075" dy="2.01493"/>
<feComposite in2="hardAlpha" operator="out"/>
<feColorMatrix type="matrix" values="0 0 0 0 0.14902 0 0 0 0 0.0627451 0 0 0 0 0.239216 0 0 0 1 0"/>
<feBlend mode="normal" in2="BackgroundImageFix" result="effect1_dropShadow_1_1012"/>
<feBlend mode="normal" in="SourceGraphic" in2="effect1_dropShadow_1_1012" result="shape"/>
</filter>
</defs>
</svg>

<svg width="19" height="30" fill="none" xmlns="http://www.w3.org/2000/svg"><g filter="url(#filter0_d_1_1012)"><path d="M13.714 27c1.459 0 2.593-1.233 3.215-2.553.343-.728.713-1.399.713-2.847 0-2.7-1.286-2.7-1.286-5.4s1.286-2.7 1.286-5.4-1.286-2.7-1.286-5.4c0-1.448.37-2.12.713-2.847C17.69 1.233 16.459 0 15 0H3.928C2.468 0 1.335 1.233.713 2.553.37 3.28 0 3.952 0 5.4c0 2.7 1.286 2.7 1.286 5.4S0 13.5 0 16.2s1.286 2.7 1.286 5.4c0 1.448-.37 2.12-.713 2.847-.622 1.32.61 2.553 2.069 2.553h11.072z" fill="#fff"/><path d="M16.645 24.314c-.606 1.285-1.659 2.373-2.931 2.373H2.642c-.646 0-1.23-.274-1.579-.674-.34-.39-.458-.897-.207-1.432l.07-.147c.328-.687.674-1.414.674-2.834 0-1.418-.344-2.142-.674-2.835l-.002-.005c-.313-.655-.61-1.281-.61-2.56 0-1.28.297-1.905.61-2.56l.002-.005c.33-.693.674-1.418.674-2.835 0-1.418-.344-2.142-.674-2.835L.924 7.96C.61 7.305.314 6.68.314 5.4S.61 3.497.925 2.835l.07-.149C1.603 1.401 2.657.313 3.929.313H15c.646 0 1.23.274 1.578.674.34.39.46.897.207 1.432l-.07.146c-.327.688-.673 1.414-.673 2.835 0 1.418.344 2.142.674 2.835l.002.005c.312.655.61 1.28.61 2.56 0 1.279-.298 1.905-.61 2.56l-.002.005c-.33.693-.674 1.417-.674 2.835s.344 2.142.674 2.835l.002.004c.312.656.61 1.282.61 2.56 0 1.28-.297 1.904-.612 2.566l-.07.149z" stroke="#26103D" stroke-width=".627"/></g><defs><filter id="filter0_d_1_1012" x="0" y="0" width="18.627" height="29.015" filterUnits="userSpaceOnUse" color-interpolation-filters="sRGB"><feFlood flood-opacity="0" result="BackgroundImageFix"/><feColorMatrix in="SourceAlpha" values="0 0 0 0 0 0 0 0 0 0 0 0 0 0 0 0 0 0 127 0" result="hardAlpha"/><feOffset dx=".985" dy="2.015"/><feComposite in2="hardAlpha" operator="out"/><feColorMatrix values="0 0 0 0 0.14902 0 0 0 0 0.0627451 0 0 0 0 0.239216 0 0 0 1 0"/><feBlend in2="BackgroundImageFix" result="effect1_dropShadow_1_1012"/><feBlend in="SourceGraphic" in2="effect1_dropShadow_1_1012" result="shape"/></filter></defs></svg>
